X: 1
T: En Dro
M: 4/4
L: 1/8
R: reel
K: Emin
E2DE B3B|BcBA G2E2|FGAF BBAG|FGEF G3F|
E2DE B3B|BcBA G2E2|FGAF BBAG|FEFG E4:|
E2E2 F2GF|E2EE FEFG|A2B2 B2AG|FGEF G3F|
E2DE F2AG|E2EG FEFG|A2B2 B2AG|FEFG E4:|
